X: 9
T: The Five Mile Chase
R: reel
M: 4/4
L: 1/8
K: Gmaj
|: G3B d2BG |FADA FADA|G2 (3BAG dG (3Bcd|egfa gedB |
G3B d2 (3Bcd|FADA FADA|G2 (3BAG dG (3Bcd|egfa g2 gf:|
|:gd (3Bcd ed (3Bcd|gabg agef|gd (3Bcd ed (3Bcd|egfa g3f|
gabg efge|dedc BG (3Bcd|e3d ed (3Bcd|egfa gedB:|


Tune 458	Setting 27643

